X: 40
T:Bourree de Thiers et de Saint Gervais
M:2/4
L:1/16
R:Bourree
Z:Steve Mansfield
K:C
c2B2 AGAB | c6 de | f3d B2G2 | cBcd cBAG | c2B2 AGAB |
c6 de | f3d B2G2 | c8 :: e2ce g2e2 | d2Bd f2d2 | c2Ac e2c2 |
BABc BAG2 | e2ce g2e2 | d2Bd f2d2 | c2c2 c2B2 | c8 :|

